X: 36795
T: Shetland Bus, The
R: waltz
M: 3/4
K: Dmajor
EFG|(3ABA ^GABA|f2f3e|d2cdeB|d2c3A|
G2EFGE|e2e3d|c2edcB|BA^GBA2|
(3ABA ^GABA|fdA2Ac|d2cded|c2B3f|
g2agfe|fdABcd|cBAGFE|D3:|
K:G
DEF|G3DGB|dDGBd2|(3ded ^cdeB|d2c3A|
F3DFA|cDFAc2|(3cdc Bcde|dcB^AB=A|
G3DGB|dDGBd2|(3gag fgag|f2e3^g|
a2agfe|f2d3^d|1 ecAGFD|G3:|2 e^de2f2|g3||

